X:453
T: WERDEN WIR SO TRAURIG SEIN
N: E1694
O: Europa, Mitteleuropa, Deutschland
R: Staende -, Studenten - Lied, Trink - Lied
M: 4/4
L: 1/8
K: D
 | D2D2D2E2 | =F2F2D2
E2 | =F2F2G2G2 | A6z2 |
D2D2D2E2 | =F2F2D2
E2 | =F2F2G2G2 | A6z2 |
A2A2d2d2 | =c3BA2
B2 | =c2c2B3A | A6z2 |
=F4G4 | A6
=F2 | G2=F2E3D | D4d2z2

@@@ Tune index: 5137
